X: 270
T: 271. Gib dich zufrieden und sei stille
N: Derived from chor271.krn
C: Johann Sebastian Bach
%%abc-version 2.0
%%abcx-abcm2ps-target-version 5.9.1 (29 Sep 2008)
%%abc-creator hum2abc beta
%%abcx-conversion-date 2019/03/11 17:28:19
%%abc-edited-by Craig Stuart Sapp
%%humdrum-veritas 1859908692
%%humdrum-veritas-data 92549580
%%
%%barnumbers 0
L: 1/8
M: C
%%staves [1 2 3 4]
V: 1 clef=treble
V: 2 clef=treble
V: 3 clef=treble-8
V: 4 clef=bass
K: G
[V:1] B2 [I:setbarnb 1]| 
[V:2] E2 | 
[V:3] G2 | 
[V:4] E,2 | 
[V:1] G2AB/c/B3A | 
[V:2] E2FG/A/ G^D EF | 
[V:3] B2cF GA Bc | 
[V:4] E,^D, E,D, E,F, G,A, | 
[V:1] G2FG/A/G3F | 
[V:2] FE E^DE3D | 
[V:3] B2B2BGA2 | 
[V:4] B,2B,,2E,4 | 
[V:1] !fermata!E4c2B2 | 
[V:2] !fermata!E4G3F | 
[V:3] !fermata!G4GAB2 | 
[V:4] !fermata!E,4E,3D, | 
[V:1] e2d2Fc BA | 
[V:2] EF FGF2G2 | 
[V:3] BA ABc2d2 | 
[V:4] C,C2B,A,2G,2 | 
[V:1] A4!fermata!G2 :|]  
[V:2] G2F2!fermata!D2 :|]  
[V:3] e2dc!fermata!B2 :|]  
[V:4] C,2D,2!fermata!G,,2 :|]  
[V:1] B2 [I:setbarnb 6]| 
[V:2] G2 | 
[V:3] d2 | 
[V:4] G,2 | 
[V:1] A2BGA2B=c | 
[V:2] AF GEF2E2 | 
[V:3] d2d^cd2^GA | 
[V:4] F,D,G,2D,E, D,C, | 
[V:1] d2cB cB!fermata!A2 | 
[V:2] D2E2ED!fermata!E2 | 
[V:3] AB^G2AB!fermata!c2 | 
[V:4] B,,2E,2A,2!fermata!A,,2 | 
[V:1] z2c2F2e^d | 
[V:2] x2E2^DEF2 | 
[V:3] x2c2B3c | 
[V:4] z2A,2B,C B,A, | 
[V:1] e=d cB Ag fe | 
[V:2] EF G=FE2AB/c/ | 
[V:3] BA G^G ABc2 | 
[V:4] G,F, E,D, C,B,,A,,2 | 
[V:1] ^d^c!fermata!B2z2e2 | 
[V:2] ^FE!fermata!^D2x2E2 | 
[V:3] B2!fermata!F2x2B2 | 
[V:4] B,,2!fermata!B,,2z2^G,2 | 
[V:1] =d=c BA B^D EA | 
[V:2] E3F ^DF EE | 
[V:3] ABc2FA BA | 
[V:4] A,A,,A,2-A,F, =G,C, | 
[V:1] G2FE!fermata!E2 |]  
[V:2] E2^D2!fermata!B,2 |]  
[V:3] B2AG!fermata!G2 |]  
[V:4] B,,A,,B,,2!fermata!E,2 |]  



